X:1
T: The Chantreus
C:
R:Jig
Q:180
K:C
M:6/8
L:1/16
|:G2|c4c2 c2B2c2|d4B2 G2A2B2|c4c2 e4g2|d4e2 f2e2d2|
c4c2 c2B2A2|B4c2 d4e2|A4d2 B2A2B2|c6 c4:|
|:g2|c'4a2 b4g2|c'4a2 g4e2|c3dc2 e2f2g2|a2f2d2 d4(3gab|
c'4a2 b4g2|c'4a2 g2e2c2|G3AG2 G2A2B2|c6 c'4:|
